T: Susan MacLeod
M: 4/4
L: 1/8
K: Gmaj
[2 g>de<g d>gc<g | B>gA<g G3 ||[2 g>de<g d>gc<g | B>gA<g G3 ||[2 g>de<g d>gc<g | B>gA<g G3 ||[2 g>de<g d>gc<g | B>gA<g G3 ||
